app/dist/common/images/megaport.svg

<svg height="18" width="18" xmlns="http://www.w3.org/2000/svg"><path d="m0 0h18v18h-18z" fill="#ea4526"/><g fill="#fff"><path d="m9.88 8.21-.88-.9-.88.9v1.09l.87.89h.03l.86-.9v-1.07z"/><path d="m9 14.88a5.88 5.88 0 1 0 0-11.76 5.88 5.88 0 0 0 0 11.76zm0-10.94-.59.35v1.94l-1.47 1.47v1.6l-1.47 1.48v1.76l.59.47.59-.47v-1.26l.88-.9.88.9v1.26l.59.46.59-.47v-1.26l.88-.9.88.9v1.26l.6.47.58-.47v-1.76l-1.47-1.48v-1.59l-1.47-1.47v-1.94z" fill-rule="evenodd"/></g></svg>

<!-- by TradingView --><svg xmlns="http://www.w3.org/2000/svg" width="18" height="18"><path fill="#EA4526" d="M0 0h18v18H0z"/><path d="M9.88 8.21L9 7.31l-.88.9V9.3l.87.89h.03l.86-.9V8.22z" fill="#fff"/><path fill-rule="evenodd" d="M9 14.88A5.88 5.88 0 109 3.12a5.88 5.88 0 000 11.76zM9 3.94l-.59.35v1.94L6.94 7.7v1.6l-1.47 1.48v1.76l.59.47.59-.47v-1.26l.88-.9.88.9v1.26L9 13l.59-.47v-1.26l.88-.9.88.9v1.26l.6.47.58-.47v-1.76l-1.47-1.48V7.7L9.59 6.23V4.29L9 3.94z" fill="#fff"/></svg>
